X:55
T:Victoria Sett Of Quadrilles No.5. Le4.055
B:L.Leadley MS#4 c1850
Z:Village Music Project, 2016 Steve Mansfield
M:2/4
L:1/8
Q:2/4=60
N: * d2 in Mss
K:Dm
c | [Af][Af]cc | ([Af][Af]) c2 | ffca | g/f/e/d/ c(d/e/) |
[Af][Af]cc | [Af][Af]cf | dg e/c/d/e/ | faf H ||
c | gg/g/ ga | [cg][ca][cg] c | g(g/f/) ef | gg/e/ cc |
[cg][cg]/[cg]/ [cg][ca] | [cg][ca][cg]c | gg/f/ ee/d/ | cec !segno! ||
f/e/ | dd/e/ ff/g/ | aa/b/ aa/g/ | ff/e/ df | eaAA |
dd/e/ ff/g/ | aa/b/ ag | ff/g/ a/g/f/e/ | "*" d f/e/ d !segno! |]

